X:1
T:Dulce Domum, SM
T:Robert Steele Ambrose, 1876
T:Dulce Domum, SM
T:Public Domain
C:Robert Steele Ambrose, 1876
Z:Public Domain
%%score ( 1 2 ) ( 3 4 )
L:1/8
M:4/4
K:Eb
V:1 treble 
V:2 treble 
V:3 bass 
V:4 bass 
V:1
 [GB]2 [FB][EB] [FB]2 [DB]2 | [EB]8 | [Ec]2 [Ec][Fc] [GB]2 [EG]2 | [DF]8 | %4
 [EG]2 [EG][EG] [FA]2 [^F=A]2 | [GB]2 [Ge]2 [Ae]2 (dc) | [EB]2 (EF) [EG]2 [DF]2 | E8 |] %8
V:2
 x8 | x8 | x8 | x8 | x8 | x6 E2 | x2 E2 x4 | E8 |] %8
V:3
 [E,B,]2 [E,A,][E,G,] [B,,A,]2 [B,,F,]2 | [E,G,]8 | [A,,A,]2 [C,A,][D,A,] [E,G,]2 [G,B,]2 | B,8 | %4
 [E,B,]2 [E,E][E,E] [E,D]2 [E,C]2 | [E,B,]2 [E,_D]2 [A,,C]2 (B,A,) | %6
 [B,,G,]2 (G,=A,) [B,,B,]2 [B,,_A,]2 | [E,G,]8 |] %8
V:4
 x8 | x8 | x8 | x8 | x8 | x6 A,,2 | x2 C,2 x4 | x8 |] %8

